X: 03082
T: SEGAL'S FLIGHT
C: Bob McQuillen 15 Jan 78
B: Bob's Note Book 03 #82
%R: reel
%D:1978
Z: 2020 John Chambers <jc:trillian.mit.edu>
M: C
L: 1/8
K: Em
GF \
| E2B,2 EGBd | B2Bc BAGA | B2e2 dBGB | AGFE D2GF |
| E2B,2 EGBd | B2Bc BAGA | BedB AGBA | G2E2 E2  :|
|: Bd \
| e2ge dBGB | AGFE D2GF | E2EF GBde | dBGB A2Bd |
| e2ge dBGB | AGFE D2GF | EGBd edBA | G2E2 E2  :|
%%begintext align
%% For Kenny Segal, fine
%% friend and fiddler, with
%% very Best Wishes always.
%%endtext
